X:1
T:Title
%%score { 1 | 2 }
L:1/8
M:4/4
K:D
V:1 treble nm="Grand Piano"
V:2 bass 
V:1
 z4 z2[Q:1/4=100] DF |[M:3/4] [FA]3 [FA] [GB][FA] | [Fd]2 [FA]2 [FA][GB] | G3 F G[CA] | %4
 [DF]4 [FA][FA] | B3 G dB | [FA]2 F2 FF | E3 ^G [EGc][DGB] | [CA]4 [A,CF][G,CE] | D3 F GB | %10
 [Fd]2 [FA]2 [FA][GB] | G3 F G[CA] | [DF]4 [FA][FA] | B3 G dB | %14
 [DFA]2 [A,DF]2[K:bass] [F,D][^G,DE] | [A,DF][A,DF] [A,CF]2[K:bass] [G,CE]2 |[M:2/4] [F,D]4 | %17
[M:1/4][K:treble] [A,FA][Fd] |[M:3/4] [Gc]3 A Bc | [Fd]2 [FA]2 FF | B3 F DE | F4 [CGA][CGA] | %22
 [Fd]3 [DF] [DG][DA] |[M:7/8] [DB]2 d3 dd |[M:3/4] dF [CF]2 [CE]2 |[M:2/4] D4 |] %26
V:2
 z4 z2 [D,F,][D,A,D] |[M:3/4] [D,D]3 [D,D] [D,D][D,D] | [D,A,]2 [D,D]2 [D,D][D,D] | %3
 [A,CE]3 [A,=C^D] [A,^CE][A,,A,] | [D,A,]4 [D,D][D,D] | [G,DG]3 [G,B,D] [G,B,G][G,DG] | %6
 [D,D]2 [D,A,D]2 [D,A,D][D,A,D] | [E,^G,D]3 [E,B,E] E,E, | A,4 A,,A,, | %9
 [D,F,]3 [D,A,D] [D,B,D][D,G,D] | [D,A,]2 [D,D]2 [D,D][D,D] | [A,CE]3 [A,=C^D] [A,^CE][A,,A,] | %12
 [D,A,]4 [D,D][D,D] | [G,DG]3 [G,B,D] [G,B,G][G,DG] | D,2 D,2 D,B,, | A,,A,, A,,2 A,,2 | %16
[M:2/4] D,4 |[M:1/4] D,[D,A,] |[M:3/4] [E,A,]3[K:treble] [A,CG] [A,DG][A,EG] | [D,D]2 [D,D]2 F,F, | %20
 B,3 F, D,E, | F,4 E,E, | [D,A,]3 [B,,A,] [B,,G,][A,,F,] | %23
[M:7/8] [G,,G,]2[K:treble] [G,B,G]3 [G,B,G][G,B,G] |[M:3/4] [A,F][A,D][K:bass] [A,,A,]2 [A,,G,]2 | %25
[M:2/4] [D,F,]4 |] %26

